X:1
T:The Blood-Washed Throng
T:The Blood-Washed Throng
T:Fanny Crosby
T:Frances Jane (Fanny) Crosby, 1906
T:Public Domain Courtesy of the Cyber Hymnal™
C:Fanny Crosby
Z:Public Domain
Z:Courtesy of the Cyber Hymnal™
%%score ( 1 2 ) 3
L:1/8
Q:1/4=60
M:2/4
K:G
V:1 treble 
V:2 treble 
V:3 bass 
V:1
 [B,D] | [DB][Gd] [Gc][GB] | [EB]>[EA] [EA] (A/B/) | [Ec]E [DF][CA] | [B,G]3 [B,D] | %5
w: 1.~There|is a blood- washed|mul- ti- tude, a *|might- y arm- y|strong; The|
w: 2.~That|pre- cious name their|guid- ing star, its *|beams will o’er them|cast, And|
w: 3.~March|on! O blood- washed|mul- ti- tude, for *|lo! the hour draws|nigh, When|
 [DG][GB] [Ge][Gd] | [Fd]>[Ac] [GB][_FA] | [FA][Fd] [Gd][G^c] | [Fd]3 [Fd] | [A_c][GB] [FA][Ac] | %10
w: Lord of hosts their|right- eous- ness, re-|deem- ing love their|song. They|fol- low Christ whose|
w: through its power their|trust- ing souls shall|o- ver- come at|last. The|glor- y cloud will|
w: we shall hail the|King of kings tri-|umph- ant in the|sky. When|songs of praise to|
 [GB]>[DA] [DG][DF] | [CE][EG] [Gc][Gc] | [GB]3 D | [CE][DF] [DG][Ge] | [Gd]>[GB] GA | %15
w: name they bear, to|yon- der por- tals|bright, Where|He has said His|faith- ful ones shall|
w: bring them safe to|yon- der pal- ace|bright, Where|they shall see Him|eye to eye and|
w: Him we love, shall|fill the courts of|light, And|they that o- ver-|come the world, shall|
 [GB]D [FA]>[DG] | [DG]4 |] %17
w: walk with Him in|white.|
w: walk with Him in|white.|
w: walk with Him in|white.|
V:2
 x | x4 | x3 E | x E x2 | x4 | x4 | x4 | x4 | x4 | x4 | x4 | x4 | x3 D | x4 | x3 G | x4 | x4 |] %17
V:3
 G, | G,[G,B,] [G,E][G,D] | [C,D]>[C,C] [C,C] ([C,A,]/[E,^G,]/) | [A,,A,][A,C] [D,A,][D,F,] | %4
 [G,,G,]3 G, | [G,B,][G,D] [G,C][G,B,] | [D,A,]>[F,D] [G,D][_G,D] | [A,D]A, A,A, | [D,A,]3 [D,A,] | %9
 [D,D][D,D] [D,D][D,D] | [G,D]>[G,C] [G,B,][B,,G,] | [C,G,][C,C] [C,E][C,E] | [G,D]3 [G,B,] | %13
 [C,G,][C,A,] [B,,G,][C,C] | [G,B,]>[G,D] [G,B,][C,E] | [D,D][D,B,] [D,C]>[G,B,] | [G,B,]4 |] %17

